X:1
T:Marching On to Zion
T:Marching On to Zion
T:William Howard Doane
T:Frances Jane (Fanny) Crosby, 1884
T:Public Domain Courtesy of the Cyber Hymnal™
C:William Howard Doane
Z:Public Domain
Z:Courtesy of the Cyber Hymnal™
%%score ( 1 2 ) ( 3 4 )
L:1/8
Q:1/4=102
M:6/8
K:D
V:1 treble 
V:2 treble 
V:3 bass 
V:4 bass 
V:1
 [DF]2 [DF] [DF]2 [CE] | [DF]2 [EG] [FA]3 | [Ad]2 [GB] [FA]2 D | [DF]3 [CE]3 | %4
w: 1.~We are child- ren|of a king,|March- ing on to|Zi- on;|
w: 2.~Toil and dan- ger|we shall meet|March- ing on to|Zi- on;|
w: 3.~True and faith- ful|let us be,|March- ing on to|Zi- on;|
 [DF]2 [DF] [DF]2 [FA] | [GB]2 [GB] !fermata![Gd]3 | [FA]2 [DF] [DF] [CE]2 | D6 | %8
w: O the songs of|joy we sing,|On our jour- ney|home;|
w: Thorns will pierce our|wea- ry feet,|On our jour- ney|home;|
w: Till our eyes the|King shall see,|On our jour- ney|home;|
 [GB]2 [GB] [GB]2 [GB] | [GB]2 [FA] [FA]3 | [Gc]2 [Gc] [Gc]2 [Gc] | [Fd]3 [FA]3 | %12
w: Will you go with|us to- day,|March- ing on to|Zi- on,|
w: Yet the King His|own will cheer,|March- ing on to|Zi- on;|
w: Hark, He bids us|watch and wait,|March- ing on to|Zi- on;|
 [GB]2 [GB] [GB]2 [GB] | [GB]2 [FA] [FA]3 | [Ec]2 [Ac] [Bd]2 [^GB] | A6 ||"^Refrain" [Fd]3 [FA]3 | %17
w: Where the King will|lead the way,|On our jour- ney|home?||
w: O how oft His|words we hear,|On our jour- ney|home.|Zi- on,|
w: Till we reach the|pearl- y gate,|On our jour- ney|home.||
 [GB]3 [Gd]3 | [Gd]2 [Ge] [Gd]2 [GB] | [GB]3 [FA]3 | [DF]2 [FA] [FA][FA][FA] | %21
w: ||||
w: Zi- on,|march- ing on to|Zi- on;|Soon we’ll en- ter the|
w: ||||
 [GB]2 [Gd] !fermata![Gd]3 | [FA]2 [DF] [DF] [CE]2 | D6 |] %24
w: |||
w: pearl- y gate,|Soon we’ll ga- ther|home.|
w: |||
V:2
 x6 | x6 | x5 D | x6 | x6 | x6 | x6 | D6 | x6 | x6 | x6 | x6 | x6 | x6 | x6 | A6 || x6 | x6 | x6 | %19
 x6 | x6 | x6 | x6 | D6 |] %24
V:3
 [D,A,]2 [D,A,] [D,A,]2 [G,A,] | [F,A,]2 [E,A,] [D,D]3 | [F,D]2 [G,D] [D,D]2 [F,A,] | %3
 A,3 [A,,A,]3 | [D,A,]2 [D,A,] [D,A,]2 [D,D] | [G,D]2 [G,D] !fermata![G,B,]3 | %6
 [A,D]2 B, [A,,B,] [A,,G,]2 | [D,F,]6 | [G,,D]2 [G,,D] [G,,D]2 [G,,D] | [D,D]2 [D,D] [D,D]3 | %10
 [A,E]2 [A,E] [A,E]2 [A,E] | [D,D]3 [D,D]3 | [G,D]2 [G,D] [G,D]2 [G,D] | [D,D]2 [D,D] [D,D]3 | %14
 [E,A,]2 [E,E] [E,E]2 [E,D] | [A,C]6 || [D,A,]3 [D,D]3 | [G,D]3 [G,B,]3 | %18
 [G,B,]2 [G,B,] [G,B,]2 [G,D] | [D,D]3 [D,D]3 | [D,A,]2 [D,D] [D,D][D,D][D,D] | %21
 [G,D]2 [G,B,] !fermata![G,B,]3 | [A,D]2 A, [A,,A,] [A,,G,]2 | [D,F,]6 |] %24
V:4
 x6 | x6 | x6 | A,3 x3 | x6 | x6 | x2 B, x3 | x6 | x6 | x6 | x6 | x6 | x6 | x6 | x6 | x6 || x6 | %17
 x6 | x6 | x6 | x6 | x6 | x2 A, x3 | x6 |] %24

